austria/municipalities/50605.svg

<?xml version="1.0" encoding="UTF-8"?>
<!DOCTYPE svg PUBLIC "-//W3C//DTD SVG 1.1//EN" "http://www.w3.org/Graphics/SVG/1.1/DTD/svg11.dtd">
<svg xmlns="http://www.w3.org/2000/svg" version="1.1" width="159px" height="192px" style="shape-rendering:geometricPrecision; text-rendering:geometricPrecision; image-rendering:optimizeQuality; fill-rule:evenodd; clip-rule:evenodd" xmlns:xlink="http://www.w3.org/1999/xlink">
<g><path style="opacity:1" fill="#070303" d="M -0.5,-0.5 C 52.5,-0.5 105.5,-0.5 158.5,-0.5C 158.5,37.1667 158.5,74.8333 158.5,112.5C 156.164,136.673 146.164,157.173 128.5,174C 114.842,184.493 99.5089,190.327 82.5,191.5C 80.5,191.5 78.5,191.5 76.5,191.5C 29.8522,185.183 4.18556,158.517 -0.5,111.5C -0.5,74.1667 -0.5,36.8333 -0.5,-0.5 Z"/></g>
<g><path style="opacity:1" fill="#fd0000" d="M 20.5,2.5 C 20.167,25.1765 20.5003,47.8431 21.5,70.5C 22.1067,70.3764 22.44,70.0431 22.5,69.5C 33.5,62.1667 44.5,54.8333 55.5,47.5C 56.1667,65.6711 56.8333,84.0045 57.5,102.5C 58.1067,102.376 58.44,102.043 58.5,101.5C 70.4725,94.5116 82.4725,87.5116 94.5,80.5C 95.1667,100.167 95.8333,119.833 96.5,139.5C 109.399,131.948 122.065,123.948 134.5,115.5C 135.666,131.49 135.833,147.49 135,163.5C 112.357,186.536 85.5233,193.369 54.5,184C 34.9011,176.399 20.4011,163.232 11,144.5C 7.71846,135.658 5.05179,126.658 3,117.5C 2.50001,79.1681 2.33335,40.8348 2.5,2.5C 8.5,2.5 14.5,2.5 20.5,2.5 Z"/></g>
<g><path style="opacity:1" fill="#7e0000" d="M 20.5,2.5 C 21.1667,24.8333 21.8333,47.1667 22.5,69.5C 22.44,70.0431 22.1067,70.3764 21.5,70.5C 20.5003,47.8431 20.167,25.1765 20.5,2.5 Z"/></g>
<g><path style="opacity:1" fill="#fdfdfd" d="M 154.5,114.5 C 152.873,130.877 147.373,145.877 138,159.5C 137.667,143.167 137.333,126.833 137,110.5C 124.333,119.167 111.667,127.833 99,136.5C 98.6667,116.167 98.3333,95.8333 98,75.5C 85.5835,83.2921 73.0835,90.9588 60.5,98.5C 59.8333,79.8333 59.1667,61.1667 58.5,42.5C 46.9782,50.757 35.3115,58.757 23.5,66.5C 23.5,45.5 23.5,24.5 23.5,3.5C 67.1667,3.5 110.833,3.5 154.5,3.5C 154.5,40.5 154.5,77.5 154.5,114.5 Z"/></g>
<g><path style="opacity:1" fill="#7e7e7e" d="M 154.5,114.5 C 154.5,77.5 154.5,40.5 154.5,3.5C 110.833,3.5 67.1667,3.5 23.5,3.5C 23.5,24.5 23.5,45.5 23.5,66.5C 22.5027,45.3399 22.1694,24.0065 22.5,2.5C 66.8333,2.5 111.167,2.5 155.5,2.5C 155.832,40.0037 155.498,77.3371 154.5,114.5 Z"/></g>
<g><path style="opacity:1" fill="#7d0000" d="M 55.5,47.5 C 55.56,46.9569 55.8933,46.6236 56.5,46.5C 57.1667,64.9955 57.8333,83.3289 58.5,101.5C 58.44,102.043 58.1067,102.376 57.5,102.5C 56.8333,84.0045 56.1667,65.6711 55.5,47.5 Z"/></g>
<g><path style="opacity:1" fill="#180d0b" d="M 111.5,21.5 C 117.655,21.0501 122.655,23.2168 126.5,28C 130.12,28.2838 132.62,30.1171 134,33.5C 136.247,38.6369 136.914,43.9702 136,49.5C 133.996,52.4746 132.996,55.8079 133,59.5C 123.541,70.6592 112.374,72.8258 99.5,66C 97.3333,63.8333 95.1667,61.6667 93,59.5C 88.0884,49.571 88.4217,39.9043 94,30.5C 95.4907,28.9963 97.324,28.1629 99.5,28C 102.348,23.5031 106.348,21.3364 111.5,21.5 Z"/></g>
<g><path style="opacity:1" fill="#f40000" d="M 108.5,23.5 C 112.637,23.1463 116.637,23.6463 120.5,25C 123.577,27.2266 124.41,30.0599 123,33.5C 123.949,30.8003 125.783,29.967 128.5,31C 134.916,36.8533 136.25,43.5199 132.5,51C 128.237,49.8668 127.737,50.7001 131,53.5C 130.33,59.8768 126.83,64.3768 120.5,67C 118.19,67.4966 115.857,67.6633 113.5,67.5C 113.509,65.6916 113.009,64.0249 112,62.5C 111.667,63.8333 111.333,65.1667 111,66.5C 105.641,67.5436 101.141,65.8769 97.5,61.5C 94.6307,59.1046 93.464,56.1046 94,52.5C 98.6081,50.3576 98.4414,49.691 93.5,50.5C 92.065,49.0715 91.065,47.4048 90.5,45.5C 90.8329,38.1442 94.1662,32.8109 100.5,29.5C 101.478,29.9767 102.311,30.6433 103,31.5C 103.195,29.7928 103.195,28.1261 103,26.5C 104.719,25.1312 106.552,24.1312 108.5,23.5 Z"/></g>
<g><path style="opacity:1" fill="#f3f100" d="M 105.5,49.5 C 104.47,46.8962 104.47,44.2295 105.5,41.5C 109.898,38.5921 114.064,38.9255 118,42.5C 118.021,51.6652 113.855,53.9985 105.5,49.5 Z"/></g>
<g><path style="opacity:1" fill="#2b2905" d="M 113.5,43.5 C 114.209,42.596 115.209,42.2627 116.5,42.5C 116.949,44.9775 116.283,46.9775 114.5,48.5C 114.593,46.8905 114.26,45.2238 113.5,43.5 Z"/></g>
<g><path style="opacity:1" fill="#260e01" d="M 120.5,53.5 C 119.778,53.9175 119.278,54.5842 119,55.5C 118.667,54.8333 118.333,54.1667 118,53.5C 117.768,54.7375 117.268,55.7375 116.5,56.5C 116.631,55.6236 116.298,54.9569 115.5,54.5C 112.651,55.0864 110.318,56.4197 108.5,58.5C 109.958,53.7446 109.291,53.4112 106.5,57.5C 105.895,56.4126 106.228,55.246 107.5,54C 106.906,53.5357 106.239,53.369 105.5,53.5C 105.5,52.1667 105.5,50.8333 105.5,49.5C 113.855,53.9985 118.021,51.6652 118,42.5C 114.064,38.9255 109.898,38.5921 105.5,41.5C 107.023,38.6356 109.357,36.969 112.5,36.5C 112.587,30.062 113.42,30.062 115,36.5C 115.333,34.8333 115.667,33.1667 116,31.5C 116.03,34.6153 117.197,37.1153 119.5,39C 121.567,39.5356 123.401,39.0356 125,37.5C 126.154,39.9574 127.488,39.9574 129,37.5C 129.167,37.8333 129.333,38.1667 129.5,38.5C 127.381,40.3998 125.047,42.0664 122.5,43.5C 125.057,43.7822 127.723,43.9489 130.5,44C 127.81,44.7709 125.144,45.6042 122.5,46.5C 121.423,48.7294 120.756,51.0628 120.5,53.5 Z"/></g>
<g><path style="opacity:1" fill="#390500" d="M 105.5,53.5 C 104.998,55.0847 103.998,55.5847 102.5,55C 103.244,53.9614 104.244,53.4614 105.5,53.5 Z"/></g>
<g><path style="opacity:1" fill="#720c04" d="M 120.5,53.5 C 122.96,55.3981 123.96,57.7314 123.5,60.5C 122.749,59.624 122.249,58.624 122,57.5C 120.908,63.8167 119.908,63.4834 119,56.5C 118.435,61.6779 117.602,61.6779 116.5,56.5C 117.268,55.7375 117.768,54.7375 118,53.5C 118.333,54.1667 118.667,54.8333 119,55.5C 119.278,54.5842 119.778,53.9175 120.5,53.5 Z"/></g>
<g><path style="opacity:1" fill="#400500" d="M 108.5,58.5 C 108.539,59.7562 108.039,60.7562 107,61.5C 106.415,60.0024 106.915,59.0024 108.5,58.5 Z"/></g>
<g><path style="opacity:1" fill="#7e0000" d="M 94.5,80.5 C 94.56,79.9569 94.8933,79.6236 95.5,79.5C 96.4996,99.4889 96.833,119.489 96.5,139.5C 95.8333,119.833 95.1667,100.167 94.5,80.5 Z"/></g>
<g><path style="opacity:1" fill="#fbfbfb" d="M -0.5,111.5 C 4.18556,158.517 29.8522,185.183 76.5,191.5C 50.8333,191.5 25.1667,191.5 -0.5,191.5C -0.5,164.833 -0.5,138.167 -0.5,111.5 Z"/></g>
<g><path style="opacity:1" fill="#160b09" d="M 44.5,118.5 C 49.5111,118.334 54.5111,118.501 59.5,119C 62.6521,122.154 66.3187,124.487 70.5,126C 74.07,130.706 76.07,136.039 76.5,142C 72.729,163.725 60.3956,170.725 39.5,163C 37,160.5 34.5,158 32,155.5C 31.7069,150.591 30.5402,145.925 28.5,141.5C 28.6576,135.863 30.4909,130.863 34,126.5C 38.541,125.117 42.041,122.45 44.5,118.5 Z"/></g>
<g><path style="opacity:1" fill="#fafafa" d="M 158.5,112.5 C 158.5,138.833 158.5,165.167 158.5,191.5C 133.167,191.5 107.833,191.5 82.5,191.5C 99.5089,190.327 114.842,184.493 128.5,174C 146.164,157.173 156.164,136.673 158.5,112.5 Z"/></g>
<g><path style="opacity:1" fill="#f3f3f2" d="M 50.5,119.5 C 56.1376,118.818 60.471,120.818 63.5,125.5C 62.6744,126.451 62.5078,127.451 63,128.5C 64.1332,126.789 65.6332,126.289 67.5,127C 73.8875,132.26 75.7208,138.76 73,146.5C 71.3476,147.217 69.8476,147.55 68.5,147.5C 72.2856,150.646 72.4523,153.979 69,157.5C 64.4803,162.176 58.9803,164.176 52.5,163.5C 52.5489,158.461 51.8823,158.295 50.5,163C 41.892,163.08 35.892,159.08 32.5,151C 33.1536,149.013 34.487,147.68 36.5,147C 32.2274,147.176 30.2274,145.176 30.5,141C 31.0037,134.152 34.1704,128.985 40,125.5C 41,126.5 42,127.5 43,128.5C 42.6948,126.557 42.6948,124.557 43,122.5C 45.5667,121.413 48.0667,120.413 50.5,119.5 Z"/></g>
<g><path style="opacity:1" fill="#252423" d="M 63.5,135.5 C 62.9423,136.79 61.9423,137.623 60.5,138C 61.4158,138.278 62.0825,138.778 62.5,139.5C 64.4042,140.091 67.0709,140.258 70.5,140C 68.038,141.216 65.3713,141.882 62.5,142C 64.5,142.333 66.5,142.667 68.5,143C 66.0995,143.186 63.7662,143.686 61.5,144.5C 60.1931,145.865 60.1931,147.198 61.5,148.5C 60.6618,148.842 60.3284,149.508 60.5,150.5C 59.596,151.209 59.2627,152.209 59.5,153.5C 58.7784,153.082 58.2784,152.416 58,151.5C 57.9152,153.085 57.7486,154.418 57.5,155.5C 55.2546,149.305 53.0879,149.639 51,156.5C 50.6667,155.5 50.3333,154.5 50,153.5C 49.3848,155.116 48.3848,156.449 47,157.5C 47.4192,155.497 48.2526,153.497 49.5,151.5C 49.3333,151.167 49.1667,150.833 49,150.5C 48.2917,151.381 47.4584,152.047 46.5,152.5C 46.4142,151.504 46.7476,150.671 47.5,150C 46.9056,149.536 46.2389,149.369 45.5,149.5C 45.1667,148.167 44.8333,146.833 44.5,145.5C 51.1476,150.513 55.8142,149.18 58.5,141.5C 55.247,135.357 50.9137,134.357 45.5,138.5C 46.4298,134.907 48.7632,133.241 52.5,133.5C 52.6816,131.409 52.3482,129.409 51.5,127.5C 51.8457,126.304 52.3457,126.304 53,127.5C 53.8368,133.837 54.5034,133.503 55,126.5C 56.1937,128.623 56.8603,130.957 57,133.5C 58.5897,136.391 60.7564,137.058 63.5,135.5 Z"/></g>
<g><path style="opacity:1" fill="#e9e90f" d="M 44.5,145.5 C 43.3132,143.025 43.6465,140.691 45.5,138.5C 50.9137,134.357 55.247,135.357 58.5,141.5C 55.8142,149.18 51.1476,150.513 44.5,145.5 Z"/></g>
<g><path style="opacity:1" fill="#868686" d="M 62.5,139.5 C 62.0825,138.778 61.4158,138.278 60.5,138C 61.9423,137.623 62.9423,136.79 63.5,135.5C 63.811,134.522 64.4777,133.855 65.5,133.5C 66.354,134.522 67.354,135.355 68.5,136C 66.6125,137.394 64.6125,138.56 62.5,139.5 Z"/></g>
<g><path style="opacity:1" fill="#121001" d="M 53.5,138.5 C 54.6935,138.97 55.3601,139.97 55.5,141.5C 55.1667,142.5 54.8333,143.5 54.5,144.5C 54.7277,142.702 54.3943,140.702 53.5,138.5 Z"/></g>
<g><path style="opacity:1" fill="#858585" d="M 61.5,148.5 C 64.867,149.001 65.2004,150.168 62.5,152C 62.7355,152.873 63.0688,153.707 63.5,154.5C 63.1543,155.696 62.6543,155.696 62,154.5C 61.2086,153.255 60.7086,151.922 60.5,150.5C 60.3284,149.508 60.6618,148.842 61.5,148.5 Z"/></g>
<g><path style="opacity:1" fill="#787878" d="M 45.5,149.5 C 46.2389,149.369 46.9056,149.536 47.5,150C 46.7476,150.671 46.4142,151.504 46.5,152.5C 46.3146,154.196 45.4813,155.529 44,156.5C 43.6666,154.953 44.1666,153.62 45.5,152.5C 44.3966,152.002 43.3966,151.669 42.5,151.5C 43.3569,150.575 44.3569,149.908 45.5,149.5 Z"/></g>
<g><path style="opacity:1" fill="#636363" d="M 59.5,153.5 C 61.3003,154.895 61.6336,156.561 60.5,158.5C 59.5481,156.955 59.2148,155.288 59.5,153.5 Z"/></g>
</svg>

<svg xmlns="http://www.w3.org/2000/svg" width="159" height="192" style="shape-rendering:geometricPrecision;text-rendering:geometricPrecision;image-rendering:optimizeQuality;fill-rule:evenodd;clip-rule:evenodd"><path style="opacity:1" fill="#070303" d="M-.5-.5h159v113c-2.336 24.173-12.336 44.673-30 61.5-13.658 10.493-28.991 16.327-46 17.5h-6c-46.648-6.317-72.314-32.983-77-80V-.5z"/><path style="opacity:1" fill="#fd0000" d="M20.5 2.5c-.333 22.677 0 45.343 1 68 .607-.124.94-.457 1-1l33-22a85646.25 85646.25 0 0 1 2 55c.607-.124.94-.457 1-1a75456.999 75456.999 0 0 1 36-21l2 59a669.95 669.95 0 0 0 38-24 384.59 384.59 0 0 1 .5 48c-22.643 23.036-49.477 29.869-80.5 20.5-19.599-7.601-34.099-20.768-43.5-39.5a208.562 208.562 0 0 1-8-27c-.5-38.332-.667-76.665-.5-115h18z"/><path style="opacity:1" fill="#7e0000" d="m20.5 2.5 2 67c-.06.543-.393.876-1 1-1-22.657-1.333-45.323-1-68z"/><path style="opacity:1" fill="#fdfdfd" d="M154.5 114.5c-1.627 16.377-7.127 31.377-16.5 45l-1-49-38 26-1-61a2141.845 2141.845 0 0 1-37.5 23l-2-56a1021.529 1021.529 0 0 1-35 24v-63h131v111z"/><path style="opacity:1" fill="#7e7e7e" d="M154.5 114.5V3.5h-131v63c-.997-21.16-1.33-42.493-1-64h133c.332 37.504-.002 74.837-1 112z"/><path style="opacity:1" fill="#7d0000" d="M55.5 47.5c.06-.543.393-.876 1-1a85646.25 85646.25 0 0 0 2 55c-.06.543-.393.876-1 1a85646.25 85646.25 0 0 0-2-55z"/><path style="opacity:1" fill="#180d0b" d="M111.5 21.5c6.155-.45 11.155 1.717 15 6.5 3.62.284 6.12 2.117 7.5 5.5 2.247 5.137 2.914 10.47 2 16-2.004 2.975-3.004 6.308-3 10-9.459 11.16-20.626 13.326-33.5 6.5L93 59.5c-4.912-9.929-4.578-19.596 1-29 1.49-1.504 3.324-2.337 5.5-2.5 2.848-4.497 6.848-6.664 12-6.5z"/><path style="opacity:1" fill="#f40000" d="M108.5 23.5c4.137-.354 8.137.146 12 1.5 3.077 2.227 3.91 5.06 2.5 8.5.949-2.7 2.783-3.533 5.5-2.5 6.416 5.853 7.75 12.52 4 20-4.263-1.133-4.763-.3-1.5 2.5-.67 6.377-4.17 10.877-10.5 13.5-2.31.497-4.643.663-7 .5.009-1.808-.491-3.475-1.5-5l-1 4c-5.359 1.044-9.859-.623-13.5-5-2.87-2.395-4.036-5.395-3.5-9 4.608-2.142 4.441-2.809-.5-2a11.621 11.621 0 0 1-3-5c.333-7.356 3.666-12.69 10-16a7.248 7.248 0 0 1 2.5 2 21.438 21.438 0 0 0 0-5c1.719-1.369 3.552-2.369 5.5-3z"/><path style="opacity:1" fill="#f3f100" d="M105.5 49.5c-1.03-2.604-1.03-5.27 0-8 4.398-2.908 8.564-2.575 12.5 1 .021 9.165-4.145 11.498-12.5 7z"/><path style="opacity:1" fill="#2b2905" d="M113.5 43.5c.709-.904 1.709-1.237 3-1 .449 2.477-.217 4.477-2 6 .093-1.61-.24-3.276-1-5z"/><path style="opacity:1" fill="#260e01" d="M120.5 53.5c-.722.417-1.222 1.084-1.5 2l-1-2c-.232 1.237-.732 2.237-1.5 3 .131-.876-.202-1.543-1-2-2.849.586-5.182 1.92-7 4 1.458-4.755.791-5.089-2-1-.605-1.087-.272-2.254 1-3.5a2.427 2.427 0 0 0-2-.5v-4c8.355 4.498 12.521 2.165 12.5-7-3.936-3.575-8.102-3.908-12.5-1 1.523-2.864 3.857-4.531 7-5 .087-6.438.92-6.438 2.5 0l1-5c.03 3.115 1.197 5.615 3.5 7.5 2.067.536 3.901.036 5.5-1.5 1.154 2.457 2.488 2.457 4 0l.5 1a39.386 39.386 0 0 1-7 5c2.557.282 5.223.449 8 .5-2.69.77-5.356 1.604-8 2.5a21.029 21.029 0 0 0-2 7z"/><path style="opacity:1" fill="#390500" d="M105.5 53.5c-.502 1.585-1.502 2.085-3 1.5.744-1.039 1.744-1.539 3-1.5z"/><path style="opacity:1" fill="#720c04" d="M120.5 53.5c2.46 1.898 3.46 4.231 3 7a6.802 6.802 0 0 1-1.5-3c-1.092 6.317-2.092 5.983-3-1-.565 5.178-1.398 5.178-2.5 0 .768-.763 1.268-1.763 1.5-3l1 2c.278-.916.778-1.583 1.5-2z"/><path style="opacity:1" fill="#400500" d="M108.5 58.5c.039 1.256-.461 2.256-1.5 3-.585-1.498-.085-2.498 1.5-3z"/><path style="opacity:1" fill="#7e0000" d="M94.5 80.5c.06-.543.393-.876 1-1 1 19.989 1.333 39.989 1 60l-2-59z"/><path style="opacity:1" fill="#fbfbfb" d="M-.5 111.5c4.686 47.017 30.352 73.683 77 80h-77v-80z"/><path style="opacity:1" fill="#160b09" d="M44.5 118.5a112.97 112.97 0 0 1 15 .5 29.618 29.618 0 0 0 11 7c3.57 4.706 5.57 10.039 6 16-3.771 21.725-16.104 28.725-37 21l-7.5-7.5a38.642 38.642 0 0 0-3.5-14c.158-5.637 1.99-10.637 5.5-15 4.541-1.383 8.041-4.05 10.5-8z"/><path style="opacity:1" fill="#fafafa" d="M158.5 112.5v79h-76c17.009-1.173 32.342-7.007 46-17.5 17.664-16.827 27.664-37.327 30-61.5z"/><path style="opacity:1" fill="#f3f3f2" d="M50.5 119.5c5.638-.682 9.971 1.318 13 6-.826.951-.992 1.951-.5 3 1.133-1.711 2.633-2.211 4.5-1.5 6.388 5.26 8.22 11.76 5.5 19.5-1.652.717-3.152 1.05-4.5 1 3.786 3.146 3.952 6.479.5 10-4.52 4.676-10.02 6.676-16.5 6 .049-5.039-.618-5.205-2-.5-8.608.08-14.608-3.92-18-12 .654-1.987 1.987-3.32 4-4-4.273.176-6.273-1.824-6-6 .504-6.848 3.67-12.015 9.5-15.5l3 3c-.305-1.943-.305-3.943 0-6a194.138 194.138 0 0 1 7.5-3z"/><path style="opacity:1" fill="#252423" d="M63.5 135.5c-.558 1.29-1.558 2.123-3 2.5.916.278 1.583.778 2 1.5 1.904.591 4.57.758 8 .5-2.462 1.216-5.129 1.882-8 2l6 1c-2.4.186-4.734.686-7 1.5-1.307 1.365-1.307 2.698 0 4-.838.342-1.172 1.008-1 2-.904.709-1.237 1.709-1 3-.722-.418-1.222-1.084-1.5-2-.085 1.585-.251 2.918-.5 4-2.245-6.195-4.412-5.861-6.5 1l-1-3a8.908 8.908 0 0 1-3 4c.42-2.003 1.253-4.003 2.5-6l-.5-1c-.708.881-1.542 1.547-2.5 2-.086-.996.248-1.829 1-2.5a2.429 2.429 0 0 0-2-.5l-1-4c6.648 5.013 11.314 3.68 14-4-3.253-6.143-7.586-7.143-13-3 .93-3.593 3.263-5.259 7-5a11.99 11.99 0 0 0-1-6c.346-1.196.846-1.196 1.5 0 .837 6.337 1.503 6.003 2-1 1.194 2.123 1.86 4.457 2 7 1.59 2.891 3.756 3.558 6.5 2z"/><path style="opacity:1" fill="#e9e90f" d="M44.5 145.5c-1.187-2.475-.853-4.809 1-7 5.414-4.143 9.747-3.143 13 3-2.686 7.68-7.352 9.013-14 4z"/><path style="opacity:1" fill="#868686" d="M62.5 139.5c-.417-.722-1.084-1.222-2-1.5 1.442-.377 2.442-1.21 3-2.5.311-.978.978-1.645 2-2a10.756 10.756 0 0 0 3 2.5 31.91 31.91 0 0 1-6 3.5z"/><path style="opacity:1" fill="#121001" d="M53.5 138.5c1.194.47 1.86 1.47 2 3l-1 3c.228-1.798-.106-3.798-1-6z"/><path style="opacity:1" fill="#858585" d="M61.5 148.5c3.367.501 3.7 1.668 1 3.5a11.47 11.47 0 0 0 1 2.5c-.346 1.196-.846 1.196-1.5 0a10.122 10.122 0 0 1-1.5-4c-.172-.992.162-1.658 1-2z"/><path style="opacity:1" fill="#787878" d="M45.5 149.5a2.429 2.429 0 0 1 2 .5c-.752.671-1.086 1.504-1 2.5-.185 1.696-1.019 3.029-2.5 4-.333-1.547.167-2.88 1.5-4-1.103-.498-2.103-.831-3-1a7.468 7.468 0 0 1 3-2z"/><path style="opacity:1" fill="#636363" d="M59.5 153.5c1.8 1.395 2.134 3.061 1 5-.952-1.545-1.285-3.212-1-5z"/></svg>
